X:3042
T:Churning Butter
M:2/4
L:1/16
K:G
Bd|b2fa g2fe|d2Bd g2AB|c2Ad f2fe|d2Bd g2Bd|
b2fa g2fe|d2Bd g2AB|cBAB cdfa|g2b2 g2:|
K:C
z2|g4 e2c2|G6AB|c4 a4|g4 fefg|
a4 f2d2|B4-BcBA|GABc defg|g2ga gec2|
g4 e2c2|G6AB|c4 _b4|a2g2 a4|
GABc a2g2|GABc g2c2|Bcdf g2B2|c6:|


